svgs/regular/guarani-sign.svg

<svg xmlns="http://www.w3.org/2000/svg" viewBox="0 0 384 512"><!--! Font Awesome Pro 6.6.0 by @fontawesome - https://fontawesome.com License - https://fontawesome.com/license (Commercial License) Copyright 2024 Fonticons, Inc. --><path d="M192 0c-13.3 0-24 10.7-24 24l0 41.5C73.3 77.3 0 158.1 0 256s73.3 178.7 168 190.5l0 41.5c0 13.3 10.7 24 24 24s24-10.7 24-24l0-41.5c94.7-11.8 168-92.6 168-190.5c0-13.3-10.7-24-24-24l-144 0 0-118c29.7 5 56.2 19 76.8 39.2c9.5 9.3 24.7 9.1 33.9-.3s9.1-24.7-.3-33.9C297.2 90.2 258.8 70.8 216 65.5L216 24c0-13.3-10.7-24-24-24zM168 114l0 284C99.9 386.6 48 327.4 48 256s51.9-130.6 120-142zm48 284l0-118 118 0c-10.1 60.3-57.7 107.9-118 118z"/></svg>

<svg xmlns="http://www.w3.org/2000/svg" viewBox="0 0 384 512"><!--! Font Awesome Pro 6.4.2 by @fontawesome - https://fontawesome.com License - https://fontawesome.com/license (Commercial License) Copyright 2023 Fonticons, Inc. --><path d="M192 0c-13.3 0-24 10.7-24 24V65.5C73.3 77.3 0 158.1 0 256s73.3 178.7 168 190.5V488c0 13.3 10.7 24 24 24s24-10.7 24-24V446.5c94.7-11.8 168-92.6 168-190.5c0-13.3-10.7-24-24-24H216V114c29.7 5 56.2 19 76.8 39.2c9.5 9.3 24.7 9.1 33.9-.3s9.1-24.7-.3-33.9C297.2 90.2 258.8 70.8 216 65.5V24c0-13.3-10.7-24-24-24zM168 114V398C99.9 386.6 48 327.4 48 256s51.9-130.6 120-142zm48 284V280H334c-10.1 60.3-57.7 107.9-118 118z"/></svg>
